X:1
T:Title
%%score { ( 1 4 5 ) | ( 2 3 ) }
L:1/8
Q:1/4=95
M:6/8
K:C
V:1 treble nm="Grand Piano"
V:4 treble 
V:5 treble 
V:2 bass 
V:3 bass 
V:1
 [CE][B,DF][A,_E^F] .[G,=EG]2 [G,CE] | [G,EG]3 [G,DF]3 | [DFB][CFA][B,FG] [DF]2 [G,B,G] | [G,CE]6 | %4
w: C.~Harold~Lowden * * * *||||
 [CE][B,DF][A,_E^F] .[G,=EG]2 [CGB] | [CGB]3 [CFA]3 | [C^FA][CF^G][CFA] .[Fe]2 [CFA] | d6 | %8
w: ||||
 e3 .d3 | c3 B3 | A3 B3 | G6[K:bass][K:treble] | c3 .B3 | B3 d3 | .d3 .B3 | d6 | e3 .d3 | c3 B3 | %18
w: ||||||||||
 A3 B3 | G6 | c3 .B3 | e3 G3 | .[CD^FA]3 .[B,=FGd]3 | [EGc]6[K:bass] |] %24
w: ||||||
V:2
 C,C,C, z AC, | G,,3 G,,3 | G,G,G, G,2 G,, | C,6 | C,C,C, z[K:treble] c[K:bass]E, | F,3 F,3 | %6
 D,D,D, z[K:treble] dD, | [G,B,F]6 | z[K:treble] [EG][EG][K:bass] z E[K:treble][EG] | %9
 z FF[K:bass] z[K:treble] FF | z[K:treble] [DF][DF][K:bass] z [DE][DE] | z CC z CC | %12
 z [CE][CE] z [CE][CE] | z DD z[K:treble] [DG][DG] | z [CE][CE^F] z [CE][CEF] | %15
 z[K:treble] [G,B,F][G,CF][K:bass] G,[K:treble][G,A,F][G,B,F] | %16
 z[K:treble] [EG][EG][K:bass] z E[K:treble][EG] | z FF[K:bass] z[K:treble] FF | %18
 z[K:treble] [DF][DF][K:bass] z[K:treble] [DF][DF] | CCC z CC | z CC z[K:treble] [CD][CD^F] | %21
 z[K:treble] [EG][EG][K:bass] z CC | z[K:treble] Bc[K:bass] G,,2 c | C,G,,E,, .C,,3 |] %24
V:3
 z3 .C,3 | x6 | x6 | x6 | z3 .C,3[K:treble][K:bass] | x6 | z3 .[D,C]3[K:treble] | x6 | %8
 [C,C]3[K:treble][K:bass] [G,,G,]3[K:treble] | [D,D]3[K:bass] [G,,G,]3[K:treble] | %10
 [B,,B,]3[K:treble][K:bass] [G,,G,]3 | [C,,C,]3 E,,3 | [A,,,A,,]3 [C,,C,]3 | %13
 [D,,D,]3 [D,,D,]3[K:treble] | [D,,D,]3 [D,,D,]3 | G,,3[K:treble][K:bass] .G,,3[K:treble] | %16
 [C,C]3[K:treble][K:bass] [G,,G,]3[K:treble] | [D,D]3[K:bass] [G,,G,]3[K:treble] | %18
 [B,,B,]3[K:treble][K:bass] [G,,G,]3[K:treble] | C,3 B,,3 | [A,,A,]3 [D,,D,]3[K:treble] | %21
 [G,,G,]3[K:treble][K:bass] [E,,E,]3 | [D,,D,]3[K:treble][K:bass] z3 | x6 |] %24
V:4
 x6 | x6 | x6 | x6 | x6 | x6 | x6 | x6 | z cc z Gc | z GG z GG | z GG z GG | %11
 z EE[K:bass] z E[K:treble]E | z AA z AA | z GG z BB | z ^Fc z FA | z GA [DFB]cd | z cc z Gc | %17
 z GG z GG | z GG z GG | z EE z EE | z EE z ^Fc | z cc z EE | x6 | C[K:bass]G,E, .C,3 |] %24
V:5
 x6 | x6 | x6 | x6 | x6 | x6 | x6 | x6 | x6 | x6 | x6 | z3[K:bass] E,3[K:treble] | x6 | x6 | x6 | %15
 x6 | x6 | x6 | x6 | z3 B,3 | x6 | x6 | x6 | x[K:bass] x5 |] %24

